Sources/FrostedUI/Resources/Icons.xcassets/arrowFatDown16.imageset/arrow-fat-down-16.svg

<svg width="16" height="16" viewBox="0 0 16 16" fill="none" xmlns="http://www.w3.org/2000/svg" data-fui-icon="true">
  <path
    d="M9.49927 1.08301C10.2816 1.08301 10.9161 1.71776 10.9163 2.5V8.41602H12.4397C13.3663 8.41636 13.8646 9.50499 13.26 10.207L9.07349 15.0693C8.50836 15.7255 7.49124 15.7256 6.92603 15.0693L2.73853 10.207C2.13445 9.50493 2.63345 8.41631 3.55981 8.41602H5.08325V2.5C5.08343 1.71797 5.71728 1.08337 6.49927 1.08301H9.49927ZM6.58325 9.16602C6.58325 9.58011 6.2473 9.91582 5.83325 9.91602H4.46802L7.99927 14.0166L11.5305 9.91602H10.1663C9.75222 9.91581 9.41626 9.5801 9.41626 9.16602V2.58301H6.58325V9.16602Z"
    fill="currentColor"
  />
</svg>

<svg xmlns="http://www.w3.org/2000/svg" width="16" height="16" fill="none" data-fui-icon="true" viewBox="0 0 16 16"><path fill="currentColor" d="M9.5 1.083c.782 0 1.416.635 1.416 1.417v5.916h1.524c.926 0 1.425 1.089.82 1.791l-4.187 4.862a1.417 1.417 0 0 1-2.147 0l-4.187-4.862c-.605-.702-.106-1.79.82-1.791h1.524V2.5c0-.782.634-1.417 1.416-1.417zM6.582 9.166a.75.75 0 0 1-.75.75H4.468l3.531 4.1 3.532-4.1h-1.365a.75.75 0 0 1-.75-.75V2.583H6.583z"/></svg>
